packages/foundations/icons/Activities/Pumpkin.svg

<svg width="24" height="24" viewBox="0 0 24 24" fill="none" xmlns="http://www.w3.org/2000/svg">
<path fill-rule="evenodd" clip-rule="evenodd" d="M14 1L15 2C15 2 14 3 14 5C14 5.04902 13.9973 5.09683 13.992 5.14344C14.371 5.06943 14.7574 5.02446 15.1483 5.00758L15.5 5C20.2094 5 24 9.04335 24 14C24 18.9567 20.2094 23 15.5 23C14.3245 23 13.1823 22.7466 12.1294 22.2647L12 22.202L11.8709 22.2646C10.9235 22.6983 9.90337 22.947 8.85168 22.9924L8.5 23C3.79064 23 0 18.9567 0 14C0 9.04335 3.79064 5 8.5 5C8.97036 5 9.43538 5.04057 9.89146 5.12011L9.97311 5.13629C9.97945 5.09194 9.98837 5.04651 10 5C10.5 3 14 1 14 1ZM15.5 7C14.4368 7 13.4123 7.27455 12.4929 7.79395L12.0014 8.07161L11.5097 7.79428C10.5884 7.27461 9.56333 7 8.5 7C4.92509 7 2 10.1201 2 14C2 17.8799 4.92509 21 8.5 21C9.56321 21 10.5883 20.7254 11.5087 20.2063L11.9999 19.9292L12.4911 20.2062C13.4122 20.7256 14.437 21 15.5 21C19.0749 21 22 17.8799 22 14C22 10.1201 19.0749 7 15.5 7ZM16.9491 15.0013C16.6017 16.6968 14.5183 18 12 18C9.48174 18 7.39829 16.6968 7.0509 15.0013H16.9491ZM8 10L10 13H6L8 10ZM16 10L18 13H14L16 10Z" fill="#3D474D"/>
</svg>

<svg width="24" height="24" fill="none" xmlns="http://www.w3.org/2000/svg"><path fill-rule="evenodd" clip-rule="evenodd" d="M14 1l1 1s-1 1-1 3c0 .049-.003.097-.008.143a7.784 7.784 0 011.156-.135L15.5 5c4.71 0 8.5 4.043 8.5 9s-3.79 9-8.5 9a8.076 8.076 0 01-3.37-.735l-.13-.063-.13.063a8.075 8.075 0 01-3.018.727L8.5 23C3.79 23 0 18.957 0 14s3.79-9 8.5-9c.47 0 .935.04 1.391.12l.082.016c.006-.044.015-.09.027-.136.5-2 4-4 4-4zm1.5 6a6.084 6.084 0 00-3.007.794L12 8.072l-.491-.278A6.096 6.096 0 008.5 7C4.925 7 2 10.12 2 14s2.925 7 6.5 7a6.096 6.096 0 003.009-.794l.49-.277.492.277c.921.52 1.946.794 3.009.794 3.575 0 6.5-3.12 6.5-7s-2.925-7-6.5-7zm1.45 8.001C16.601 16.697 14.517 18 12 18c-2.518 0-4.602-1.303-4.95-2.999h9.9zM8 10l2 3H6l2-3zm8 0l2 3h-4l2-3z" fill="#3D474D"/></svg>
